X:2269
T:Glengarry's Foxhunter
O:england
M:6/8
L:1/8
Q:180
K:G
DG3/2A/ GG3/2A/|BGD CB,A,|G,G3/2A/ GdB|AGE EE2|DG3/2A/ GGB|dG,3/2B,/ DDB,|G,B,3/2C/ B,A,B,|DGE EE2|D
W: G G G Em D G G Bm Em
G3/2A/ GG3/2A/|BGD CB,A,|G,G3/2A/ GdB|AGE EE2|DG3/2A/ GGB|dG,3/2B,/ DDB,|G,B,3/2C/ B,A,B,|DGE EE2|F
W: G G G Em D G G Bm Em
G3/2A/ Gd2|eG3/2A/ GGE|DG3/2A/ Gd2|edB BB2|dB3/2^A/ Be2|gd3/2e/ ddB|GA3/2G/ AB2|AGE EE2|F
W: G D Em C Em D G Bm Bm C Bm G Am Bm Em
G3/2A/ Gd2|eG3/2A/ GGE|DG3/2A/ Gd2|edB BB2|dB3/2^A/ Be2|gd3/2e/ ddB|GA3/2G/ AB2|AGE EE2|
W: G D Em C Em D # G Bm Bm C Bm G Am Bm Em


